svgs/duotone/download.svg

<svg xmlns="http://www.w3.org/2000/svg" viewBox="0 0 512 512"><!-- Font Awesome Pro 6.0.0-alpha2 by @fontawesome - https://fontawesome.com License - https://fontawesome.com/license (Commercial License) --><defs><style>.fa-secondary{opacity:.4}</style></defs><path d="M480 352H346.5L301.25 397.25C289.156 409.344 273.094 416 256 416S222.844 409.344 210.75 397.25L165.5 352H32C14.326 352 0 366.326 0 384V480C0 497.672 14.326 512 32 512H480C497.674 512 512 497.672 512 480V384C512 366.326 497.674 352 480 352ZM432 456C418.801 456 408 445.199 408 432C408 418.799 418.801 408 432 408S456 418.799 456 432C456 445.199 445.199 456 432 456Z" class="fa-secondary"/><path d="M105.371 246.621C92.876 234.125 92.876 213.867 105.371 201.371C117.867 188.875 138.126 188.875 150.621 201.371L224 274.75V32C224 14.326 238.328 0 256 0C273.673 0 288 14.326 288 32V274.75L361.378 201.371C373.873 188.875 394.132 188.875 406.628 201.371C419.123 213.867 419.123 234.125 406.628 246.621L278.625 374.625C272.375 380.875 264.187 384 256 384S239.625 380.875 233.375 374.625L105.371 246.621Z" class="fa-primary"/></svg>

<svg xmlns="http://www.w3.org/2000/svg" viewBox="0 0 512 512"><!--! Font Awesome Pro 6.3.0 by @fontawesome - https://fontawesome.com License - https://fontawesome.com/license (Commercial License) Copyright 2023 Fonticons, Inc. --><defs><style>.fa-secondary{opacity:.4}</style></defs><path class="fa-primary" d="M105.4 246.6c-12.49-12.5-12.49-32.75 0-45.25c12.5-12.5 32.76-12.5 45.25 0L224 274.8V32c0-17.67 14.33-32 32-32c17.67 0 32 14.33 32 32v242.8l73.38-73.38c12.49-12.5 32.75-12.5 45.25 0c12.49 12.5 12.49 32.75 0 45.25l-128 128C272.4 380.9 264.2 384 256 384s-16.38-3.125-22.62-9.375L105.4 246.6z"/><path class="fa-secondary" d="M480 352h-133.5l-45.25 45.25C289.2 409.3 273.1 416 256 416s-33.16-6.656-45.25-18.75L165.5 352H32c-17.67 0-32 14.33-32 32v96c0 17.67 14.33 32 32 32h448c17.67 0 32-14.33 32-32v-96C512 366.3 497.7 352 480 352zM432 456c-13.2 0-24-10.8-24-24c0-13.2 10.8-24 24-24s24 10.8 24 24C456 445.2 445.2 456 432 456z"/></svg>
